X: 79
T: Spirit of Mercy, Truth, and Love
L: 1/4 % default length
%%staves (S1V1 S1V2) | (S2V1 S2V2) 
V: S1V1 clef=treble 
%%MIDI beat 127 125 110 1
V: S1V2 
%%MIDI beat 127 125 110 1
V: S2V1 clef=bass 
%%MIDI beat 127 125 110 1
V: S2V2 
%%MIDI beat 127 125 110 1
K: Fb % key signature
M: C
%
%%MIDI program 1 0 % Piano 1
%%MIDI program 2 0 % Piano 1
%%MIDI program 3 0 % Piano 1
%%MIDI program 4 0 % Piano 1
%
% 1
[V: S1V1] [Q:1/4=92] B | B A G F | E c B || B | e d c B | B ^A B ||
w: 1.~Spi- rit of mer- cy, truth, and love, O shed thine in- fluence from a- bove;
w: 2.~In ev- ery clime, by ev- ery tongue, Be God's a- maz- ing glo- ry sung:
w: 3.~Un- fail- ing Com- fort, heav- 'nly Guide, Still o'er thy ho- ly Church pre- side;
[V: S1V2]  E | B, C/D/ E D | E E E || F | E F F D | G F/E/ D ||
[V: S2V1]  G, | G, A, B, B, | G, A, G, || B, | ^A, B, A, B, | C C B, ||
[V: S2V2]  E, | G, F, E, B,, | C, A,, E, || D, | D, D,/E,/ F, G, | E, F, B,, ||
% 5
[V: S1V1]  G | G A B G | F3/2 G/ A || A | G F B A | G F E || A2 G2 |]
w: And still from age to age con- vey The won- ders of this sa- cred day.
w: Let all the list- 'ning earth be taught The deeds our great Re- deem- er wrought.
w: Still let man- kind thy bless- ings prove, Spi- rit of mer- cy, truth, and love. A- men.
[V: S1V2]  E | E D/C/ B, E | D3/2 E/ F || F | E D E E | E D E || E2 E2 |]
[V: S2V1]  G, | B, A, G, B, | B,3/2 B,/ C || B, | B, B, B, C | B,3/2 A,/ G, || C2 B,2 |]
[V: S2V2]  E, | E, F, G, E, | B,3/2 G,/ F, || D, | E, B,, G,, A,, | B,, B,, E, || A,,2 E,2 |]

